X:1
T:Title
%%score { ( 1 3 5 ) | ( 2 4 6 ) }
L:1/8
M:3/4
K:C
V:1 treble nm="Grand Piano"
V:3 treble 
V:5 treble 
V:2 bass 
V:4 bass 
V:6 bass 
V:1
 z2 z2[Q:1/4=96] [CE][DF] | [EG]3 [EG] [FA][EG] | [EG] [Ec]3 [Ec][Gc] | [Ac]3 [Ac] [GB][FA] | %4
 [EG]4 [CE][DF] | [EG]3 [EG] [FA][EG] | [EG] [Ec]3 [FB][Gc] | [Gd]3 [Gd] [^Fd][Fe] | [Gd]4 [Gc]d | %9
 e3 e ed | d c3 c[Gc] | [Ac]3 [Ac] [GB][FA] | [EG]4 [CE][DF] | [EG]3 [EG] [FA][EG] | %14
 [EG] [Ec]3 [Gc][Ad] | %15
[M:27/32] z/4 z/4 z/4 z/4 z/4 z/4 z/4 z/4 z/4 z/4 z/4 z/4 z/4 z/4 z/ e/4-e/4-e/4-e/4-e/4-e/4-e/-<e/ z/4 | %16
[M:2/4] [Ec]4 |[M:4/4] z2 z/ c3/2- c/4 z/4 z/ z z2 | z2 z/ E3/2- E/4 z/4 z/ z z2 | %19
 (3:2:2c2 d e3/4 z/4 z (5:4:4c2 e/ d/- d2- | %20
 (3:2:2[Gd-]2 [Gd-] [^Fd-]/>d/-d- (5:4:4[Ad-]2 [Fd-]/ [Gd]/- [Gd]2 | z4 (3:2:2e2 d d3/4 z/4 z | %22
 (5:4:5c2 [GB]/ [FA]/-[FA]3/2[Ac]/ z4 | %23
 (5:4:5[EG]2 [EG]/ [FA]/-[FA]3/2[Ac]/ z2 G/-[E-Gc-]/4[Ec]/4-[Ec] | (5:4:4c2 d/ ee3/2- e2 e2- | %25
[M:3/4] e-e/4 z/4 z/ (3[CEc-]/[Ec]/- [Ec-]2 c2- | (3[Ec]3 z3 z3 |] %27
V:2
 z2 z2 [C,G,][C,G,] | [C,C]3 [C,C] [C,C][C,C] | [C,C] [C,G,]3 [C,G,][E,C] | %3
 [F,C]3 [F,C] [F,C][F,C] | [C,C]4 [C,G,][C,G,] | [C,C]3 [C,C] [C,C][C,C] | %6
 [C,C] [C,G,]3 [D,G,][E,C] | [G,B,]3 [G,B,] [D,A,][D,C] | [G,B,]4 [E,C][K:treble][G,B,G] | %9
 [CG]3 [CG] [G,CG][^G,B,F] | [A,CF][K:bass] [A,CE]3 [A,CE][E,C] | [F,C]3 [F,C] [F,C][F,C] | %12
 [C,C]4 [C,G,][C,G,] | [C,C]3 [C,C] [C,C][C,C] | [C,C] [C,G,]3 [E,C][F,C] | %15
[M:27/32][K:treble] [G,CG]/-<[G,CG]/[G,CG]/4-[G,CG]/4-[G,CG]/4-[G,CG]/4-[G,CG]/4-[G,CG]/4-[G,CG]/4-[G,CG]/4-[G,CG]/-<[G,CG]/[CG]/4-[CG]/4-[CG]/4-[CG]/4-[CG]/-<[CG]/-[G,-B,-CF-G]/[G,B,F]/4 | %16
[M:2/4][K:bass] [C,G,]4- |[M:4/4] [C,G,]3/4 z/4 z z2 z4 | z2 z/ [G,C]3/2- [G,C]/4 z/4 z/ z z2 | %19
 z8 | (3:2:2[G,B,]2 [G,B,] [D,A,]3/4 z/4 z (5:4:4[D,C]2 [D,A,]/ [G,B,]/- [G,B,]2 | %21
 z4[K:treble] (3:2:2[CG]2 [^G,B,F] F/-[A,-C-E-F]/4[A,CE]/4-[A,CE]- | %22
 [A,CE]3/4 z/4 z[K:bass] z2 (3:2:2[F,C]2 [F,C] [C,C]2- | [C,C]3/4 z/4 z z2 (3:2:2[F,C]2 [F,C] z2 | %24
 (5:4:4[A,CE]2 [^G,C^F]/ [=G,CG][G,CG]3/2- [G,CG]2[K:bass] [G,CG]2- | %25
[M:3/4] [G,CG]-[G,CG]/4 z/4 z/ (3C,/-[C,G,]/- [C,-G,]2 C,2- | (3[C,G,]3 z3 z3 |] %27
V:3
 x6 | x6 | x6 | x6 | x6 | x6 | x6 | x6 | x6 | x6 | x6 | x6 | x6 | x6 | x6 | %15
[M:27/32] e/-<e/e/4-e/4-e/4-e/4-e/4-e/4-e/4-e/4-e/-<e/ z/4 z/4 z/4 z/4 z/4 z/4 z/ d3/4 | %16
[M:2/4] x4 |[M:4/4] (3:2:2c2 d e3/4 z/4 z (5:4:4E2 A/ G/- G2- | %18
 (3:2:2[EG-]2 [EG-] [DG-]/>G/-G- (5:4:4[FG-]2 [DG-]/ [EG]/- [EG]2 | z2 z/ G3/2- G/4 z/4 z/ z z2 | %20
 z2 z/ G3/2- G/4 z/4 z/ z z2 | (5:4:5[Ec]2 [Fd]/ [Ge]/-[Ge]3/2[Ge]/ z2 z/ c3/2 | %22
 z4 (3:2:2[Ac]2 [FA] [EG]2- | [EG]3/4 z/4 z z2 (3:2:2[Ac]2 [FA] .E2 | x8 | %25
[M:3/4] z d- d/4 z/4 z/ z z z/ F/- | F3/4 z/4 z z2 z2 |] %27
V:4
 x6 | x6 | x6 | x6 | x6 | x6 | x6 | x6 | x5[K:treble] x | x6 | x[K:bass] x5 | x6 | x6 | x6 | x6 | %15
[M:27/32][K:treble] z/4 z/4 z/4 z/4 z/4 z/4 z/4 z/4 z/4 z/4 z/4 z/4 z/4 z/4 z/ G,/4-G,/4-G,/4-G,/4-G,/-<G,/ z/4 z/ | %16
[M:2/4][K:bass] x4 |[M:4/4] x8 | %18
 (3:2:2[C,C]2 [C,C] [G,B,]3/4 z/4 z (5:4:4[G,C]2 [G,B,]/ [C,C]/- [C,C]2 | x8 | %20
 z2 z/ [D,B,]3/2- [D,B,]/4 z/4 z/ z z2 | %21
 (5:4:5[C,G,]2 [C,G,]/ [C,C]/-[C,C]3/2[C,C]/[K:treble] z2 .[A,C]2 | %22
 (5:4:5[A,CE]2[K:bass] [E,C]/ [F,C]/-[F,C]3/2[F,C]/ z4 | %23
 (5:4:5[C,C]2 [C,C]/ [F,C]/-[F,C]3/2[F,C]/ z2 [C,C]<[C,C] | x6[K:bass] x2 | %25
[M:3/4] z [G,B,F]- [G,B,F]/4 z/4 z/ z z z/ A,/- | A,3/4 z/4 z z2 z2 |] %27
V:5
 x6 | x6 | x6 | x6 | x6 | x6 | x6 | x6 | x6 | x6 | x6 | x6 | x6 | x6 | x6 |[M:27/32] x27/4 | %16
[M:2/4] x4 |[M:4/4] x8 | x8 | x8 | x8 | x8 | x8 | x8 | x8 |[M:3/4] z2 z2 C3/2-C/4 z/4 | x6 |] %27
V:6
 x6 | x6 | x6 | x6 | x6 | x6 | x6 | x6 | x5[K:treble] x | x6 | x[K:bass] x5 | x6 | x6 | x6 | x6 | %15
[M:27/32][K:treble] x27/4 |[M:2/4][K:bass] x4 |[M:4/4] x8 | x8 | x8 | x8 | x4[K:treble] x4 | %22
 x8/5[K:bass] x32/5 | x8 | x6[K:bass] x2 |[M:3/4] z2 z2 E,3/2-E,/4 z/4 | x6 |] %27

